src/icons/file-json.svg

<svg width="16" height="16" viewBox="0 0 16 16" fill="none" xmlns="http://www.w3.org/2000/svg">
<path d="M1 9V7.5C1.82843 7.5 2.5 6.82843 2.5 6V5.5C2.5 3.84315 3.84315 2.5 5.5 2.5H6V4H5.5C4.67157 4 4 4.67157 4 5.5V6C4 7.65685 2.65685 9 1 9Z" fill="#A67CF8"/>
<path d="M15 9V7.5C14.1716 7.5 13.5 6.82843 13.5 6V5.5C13.5 3.84315 12.1569 2.5 10.5 2.5H10V4H10.5C11.3284 4 12 4.67157 12 5.5V6C12 7.65685 13.3431 9 15 9Z" fill="#A67CF8"/>
<path d="M1 7.5V9C1.82843 9 2.5 9.67157 2.5 10.5V11C2.5 12.6569 3.84315 14 5.5 14H6V12.5H5.5C4.67157 12.5 4 11.8284 4 11V10.5C4 8.84315 2.65685 7.5 1 7.5Z" fill="#A67CF8"/>
<path d="M15 7.5V9C14.1716 9 13.5 9.67157 13.5 10.5V11C13.5 12.6569 12.1569 14 10.5 14H10V12.5H10.5C11.3284 12.5 12 11.8284 12 11V10.5C12 8.84315 13.3431 7.5 15 7.5Z" fill="#A67CF8"/>
<circle cx="8" cy="6" r="1" fill="#A67CF8"/>
<path d="M7.5 12H7V10C7 9.44772 7.44772 9 8 9C8.55228 9 9 9.44772 9 10V10.0858C9 10.351 8.89464 10.6054 8.70711 10.7929L7.5 12Z" fill="#A67CF8"/>
</svg>

<svg xmlns="http://www.w3.org/2000/svg" width="16" height="16" fill="none"><path fill="#A67CF8" d="M1 9V7.5A1.5 1.5 0 0 0 2.5 6v-.5a3 3 0 0 1 3-3H6V4h-.5A1.5 1.5 0 0 0 4 5.5V6a3 3 0 0 1-3 3m14 0V7.5A1.5 1.5 0 0 1 13.5 6v-.5a3 3 0 0 0-3-3H10V4h.5A1.5 1.5 0 0 1 12 5.5V6a3 3 0 0 0 3 3"/><path fill="#A67CF8" d="M1 7.5V9a1.5 1.5 0 0 1 1.5 1.5v.5a3 3 0 0 0 3 3H6v-1.5h-.5A1.5 1.5 0 0 1 4 11v-.5a3 3 0 0 0-3-3m14 0V9a1.5 1.5 0 0 0-1.5 1.5v.5a3 3 0 0 1-3 3H10v-1.5h.5A1.5 1.5 0 0 0 12 11v-.5a3 3 0 0 1 3-3"/><circle cx="8" cy="6" r="1" fill="#A67CF8"/><path fill="#A67CF8" d="M7.5 12H7v-2a1 1 0 0 1 2 0v.086a1 1 0 0 1-.293.707z"/></svg>
